Numix/16/status/indicator-keyboard-Si.svg

<?xml version="1.0" encoding="UTF-8" standalone="no"?>
<svg
   xmlns:dc="http://purl.org/dc/elements/1.1/"
   xmlns:cc="http://creativecommons.org/ns#"
   xmlns:rdf="http://www.w3.org/1999/02/22-rdf-syntax-ns#"
   xmlns:svg="http://www.w3.org/2000/svg"
   xmlns="http://www.w3.org/2000/svg"
   xmlns:sodipodi="http://sodipodi.sourceforge.net/DTD/sodipodi-0.dtd"
   xmlns:inkscape="http://www.inkscape.org/namespaces/inkscape"
   viewBox="0 0 16 16"
   id="svg2"
   version="1.1"
   inkscape:version="0.91 r13725"
   sodipodi:docname="indicator-keyboard-Si.svg">
  <metadata
     id="metadata13">
    <rdf:RDF>
      <cc:Work
         rdf:about="">
        <dc:format>image/svg+xml</dc:format>
        <dc:type
           rdf:resource="http://purl.org/dc/dcmitype/StillImage" />
      </cc:Work>
    </rdf:RDF>
  </metadata>
  <defs
     id="defs11" />
  <sodipodi:namedview
     pagecolor="#ffffff"
     bordercolor="#666666"
     borderopacity="1"
     objecttolerance="10"
     gridtolerance="10"
     guidetolerance="10"
     inkscape:pageopacity="0"
     inkscape:pageshadow="2"
     inkscape:window-width="640"
     inkscape:window-height="480"
     id="namedview9"
     showgrid="false"
     inkscape:zoom="14.75"
     inkscape:cx="8"
     inkscape:cy="8"
     inkscape:window-x="65"
     inkscape:window-y="24"
     inkscape:window-maximized="0"
     inkscape:current-layer="svg2" />
  <path
     style="fill:#ececec;fill-opacity:1"
     d="M 1.5996094 0 C 0.71320937 2.9605947e-16 0 0.71320937 0 1.5996094 L 0 14.400391 C 2.9605947e-16 15.286791 0.71320937 16 1.5996094 16 L 14.400391 16 C 15.286791 16 16 15.286791 16 14.400391 L 16 1.5996094 C 16 0.71320937 15.286791 0 14.400391 0 L 1.5996094 0 z M 10.490234 4.6796875 C 10.610234 4.6796875 10.712875 4.7206875 10.796875 4.8046875 C 10.880875 4.8826875 10.923828 4.9909062 10.923828 5.1289062 C 10.923828 5.2669063 10.880875 5.3788906 10.796875 5.4628906 C 10.712875 5.5408906 10.610234 5.578125 10.490234 5.578125 C 10.370234 5.578125 10.269547 5.5408906 10.185547 5.4628906 C 10.101547 5.3788906 10.058594 5.2669063 10.058594 5.1289062 C 10.058594 4.9909062 10.101547 4.8826875 10.185547 4.8046875 C 10.269547 4.7206875 10.370234 4.6796875 10.490234 4.6796875 z M 7.2558594 4.8144531 C 7.4238594 4.8144531 7.588 4.8256094 7.75 4.8496094 C 7.912 4.8736094 8.0612187 4.9072188 8.1992188 4.9492188 C 8.3432187 4.9852187 8.4719375 5.0262188 8.5859375 5.0742188 C 8.7059375 5.1222187 8.8067656 5.1745156 8.8847656 5.2285156 L 8.6679688 5.7402344 C 8.4939687 5.6202344 8.2812969 5.525125 8.0292969 5.453125 C 7.7832969 5.381125 7.5165156 5.3457031 7.2285156 5.3457031 C 7.0305156 5.3457031 6.8476875 5.3662031 6.6796875 5.4082031 C 6.5176875 5.4442031 6.3758594 5.5076563 6.2558594 5.5976562 C 6.1358594 5.6816563 6.04075 5.789875 5.96875 5.921875 C 5.90275 6.053875 5.8691406 6.2124375 5.8691406 6.3984375 C 5.8691406 6.5904375 5.9045625 6.7527656 5.9765625 6.8847656 C 6.0485625 7.0167656 6.1474375 7.1305625 6.2734375 7.2265625 C 6.4054375 7.3225625 6.5584219 7.4083281 6.7324219 7.4863281 C 6.9064219 7.5643281 7.0967813 7.6464688 7.3007812 7.7304688 C 7.5467813 7.8324688 7.7761875 7.9331562 7.9921875 8.0351562 C 8.2141875 8.1371563 8.4063594 8.2584844 8.5683594 8.3964844 C 8.7303594 8.5344844 8.8590781 8.7023906 8.9550781 8.9003906 C 9.0510781 9.0983906 9.0996094 9.3409063 9.0996094 9.6289062 C 9.0996094 10.192906 8.9018594 10.616437 8.5058594 10.898438 C 8.1158594 11.180438 7.5841094 11.320313 6.9121094 11.320312 C 6.6721094 11.320312 6.4538594 11.305391 6.2558594 11.275391 C 6.0578594 11.245391 5.8806094 11.209969 5.7246094 11.167969 C 5.5686094 11.119969 5.436125 11.071438 5.328125 11.023438 C 5.220125 10.975438 5.1361719 10.934437 5.0761719 10.898438 L 5.2753906 10.367188 C 5.3353906 10.403188 5.4155781 10.444187 5.5175781 10.492188 C 5.6195781 10.540187 5.7389531 10.588719 5.8769531 10.636719 C 6.0149531 10.678719 6.1717031 10.714141 6.3457031 10.744141 C 6.5197031 10.774141 6.711875 10.789062 6.921875 10.789062 C 7.407875 10.789062 7.7866406 10.703297 8.0566406 10.529297 C 8.3266406 10.349297 8.4609375 10.060063 8.4609375 9.6640625 C 8.4609375 9.4360625 8.4161719 9.2476563 8.3261719 9.0976562 C 8.2421719 8.9416563 8.128375 8.8129375 7.984375 8.7109375 C 7.840375 8.6029375 7.6742813 8.5134063 7.4882812 8.4414062 C 7.3022813 8.3634063 7.1082969 8.2812656 6.9042969 8.1972656 C 6.6462969 8.0952656 6.4149375 7.9908125 6.2109375 7.8828125 C 6.0069375 7.7748125 5.8334531 7.6554375 5.6894531 7.5234375 C 5.5454531 7.3854375 5.4334688 7.2286875 5.3554688 7.0546875 C 5.2834688 6.8806875 5.2480469 6.6773594 5.2480469 6.4433594 C 5.2480469 5.9093594 5.4252969 5.5045156 5.7792969 5.2285156 C 6.1332969 4.9525156 6.6258594 4.8144531 7.2558594 4.8144531 z M 10.203125 6.5332031 L 10.789062 6.5332031 L 10.789062 11.185547 L 10.203125 11.185547 L 10.203125 6.5332031 z "
     id="path4" />
</svg>

<svg xmlns="http://www.w3.org/2000/svg" viewBox="0 0 16 16">
 <path d="m 1.6 0 c -0.886 0 -1.6 0.713 -1.6 1.6 l 0 12.801 c 0 0.886 0.713 1.6 1.6 1.6 l 12.801 0 c 0.886 0 1.6 -0.713 1.6 -1.6 l 0 -12.801 c 0 -0.886 -0.713 -1.6 -1.6 -1.6 l -12.801 0 z m 8.891 4.68 c 0.12 0 0.223 0.041 0.307 0.125 c 0.084 0.078 0.127 0.186 0.127 0.324 c 0 0.138 -0.043 0.25 -0.127 0.334 c -0.084 0.078 -0.187 0.115 -0.307 0.115 c -0.12 0 -0.221 -0.037 -0.305 -0.115 c -0.084 -0.084 -0.127 -0.196 -0.127 -0.334 c 0 -0.138 0.043 -0.246 0.127 -0.324 c 0.084 -0.084 0.185 -0.125 0.305 -0.125 z m -3.234 0.135 c 0.168 0 0.332 0.011 0.494 0.035 c 0.162 0.024 0.311 0.058 0.449 0.1 c 0.144 0.036 0.273 0.077 0.387 0.125 c 0.12 0.048 0.221 0.1 0.299 0.154 l -0.217 0.512 c -0.174 -0.12 -0.387 -0.215 -0.639 -0.287 c -0.246 -0.072 -0.513 -0.107 -0.801 -0.107 c -0.198 0 -0.381 0.021 -0.549 0.063 c -0.162 0.036 -0.304 0.099 -0.424 0.189 c -0.12 0.084 -0.215 0.192 -0.287 0.324 c -0.066 0.132 -0.1 0.291 -0.1 0.477 c 0 0.192 0.035 0.354 0.107 0.486 c 0.072 0.132 0.171 0.246 0.297 0.342 c 0.132 0.096 0.285 0.182 0.459 0.26 c 0.174 0.078 0.364 0.16 0.568 0.244 c 0.246 0.102 0.475 0.203 0.691 0.305 c 0.222 0.102 0.414 0.223 0.576 0.361 c 0.162 0.138 0.291 0.306 0.387 0.504 c 0.096 0.198 0.145 0.441 0.145 0.729 c 0 0.564 -0.198 0.988 -0.594 1.27 c -0.39 0.282 -0.922 0.422 -1.594 0.422 c -0.24 0 -0.458 -0.015 -0.656 -0.045 c -0.198 -0.03 -0.375 -0.065 -0.531 -0.107 c -0.156 -0.048 -0.288 -0.097 -0.396 -0.145 c -0.108 -0.048 -0.192 -0.089 -0.252 -0.125 l 0.199 -0.531 c 0.06 0.036 0.14 0.077 0.242 0.125 c 0.102 0.048 0.221 0.097 0.359 0.145 c 0.138 0.042 0.295 0.077 0.469 0.107 c 0.174 0.03 0.366 0.045 0.576 0.045 c 0.486 0 0.865 -0.086 1.135 -0.26 c 0.27 -0.18 0.404 -0.469 0.404 -0.865 c 0 -0.228 -0.045 -0.416 -0.135 -0.566 c -0.084 -0.156 -0.198 -0.285 -0.342 -0.387 c -0.144 -0.108 -0.31 -0.198 -0.496 -0.27 c -0.186 -0.078 -0.38 -0.16 -0.584 -0.244 c -0.258 -0.102 -0.489 -0.206 -0.693 -0.314 c -0.204 -0.108 -0.377 -0.227 -0.521 -0.359 c -0.144 -0.138 -0.256 -0.295 -0.334 -0.469 c -0.072 -0.174 -0.107 -0.377 -0.107 -0.611 c 0 -0.534 0.177 -0.939 0.531 -1.215 c 0.354 -0.276 0.847 -0.414 1.477 -0.414 z m 2.947 1.719 l 0.586 0 l 0 4.652 l -0.586 0 l 0 -4.652 z" style="fill:#ececec;fill-opacity:1"/>
</svg>
